assets/svg/plati_market.svg

<svg xmlns="http://www.w3.org/2000/svg" width="50" height="50" fill="none" viewBox="0 0 50 50"><path fill="#f29422" d="M17.42 50c.31-3.84.78-7.67 1.33-11.5.22-1.55.55-3.08.88-4.62.46-2.18 1.03-2.49 3.56-1.98 2.65.53 5.31 1.06 8.33 1.67-2.35-4.76-4.56-9.25-6.95-14.11-.52.83-.83 1.3-1.11 1.79-3.26 5.72-6.57 11.43-9.72 17.2-.86 1.57-1.91 2.24-3.99 2.21-5.57-.09-5.84-.37-3.4-4.71 4.21-7.5 8.47-14.97 12.63-22.5.79-1.43 1.76-2.02 3.67-1.97 8.41.24 6.12-1.14 9.42 5.36 3.45 6.79 6.76 13.63 10.12 20.46 1.26 2.54.65 3.48-2.57 3.27-3.31-.21-6.58-.83-9.86-1.31-1.03-.16-2.03-.44-3.18-.69-.39 2.1-.91 4.01-1.05 5.94-.16 2.12-1.1 3.56-3.52 4.27-.69.2-1.26.67-1.73 1.12-.78.1-1.72.1-2.86.1"/><path d="M18.75 38.5c.22-1.55.55-3.08.88-4.62.46-2.18 1.03-2.49 3.56-1.98 2.65.53 5.31 1.06 8.33 1.67-2.35-4.76-4.56-9.25-6.95-14.11-.52.83-.83 1.3-1.11 1.79-3.26 5.72-6.57 11.43-9.72 17.2-.86 1.57-1.91 2.24-3.99 2.21-5.57-.09-5.84-.37-3.4-4.71 4.21-7.5 8.47-14.97 12.63-22.5.79-1.43 1.76-2.02 3.67-1.97 8.41.24 6.12-1.14 9.42 5.36 3.45 6.79 6.76 13.63 10.12 20.46 1.26 2.54.65 3.48-2.57 3.27-3.31-.21-6.58-.83-9.86-1.31-1.03-.16-2.03-.44-3.18-.69-.39 2.1-.91 4.01-1.05 5.94-.16 2.12-1.1 3.56-3.52 4.27-.69.2-1.26.67-1.73 1.12-.78.1-1.72.1-2.86.1.31-3.84.78-7.67 1.33-11.5"/><path fill="#ee9221" d="M26.19 0c.34 1.61.49 3.23.62 4.85.1 1.15-.71 1.37-1.85 1.41-1.21.03-1.92-.28-1.8-1.41.17-1.51.36-3.02.51-4.69C24.42 0 25.21 0 26.19 0"/><path d="M26.81 4.85c.1 1.15-.71 1.37-1.85 1.41-1.21.03-1.92-.28-1.8-1.41.17-1.51.36-3.02.51-4.69C24.42 0 25.21 0 26.19 0c.34 1.61.49 3.23.62 4.85"/><path fill="#e0891f" d="M6.96 24.01c-2.11.28-4.18.46-6.24.44-.27 0-.83-1.11-.71-1.6.13-.49.91-1.14 1.49-1.22 1.4-.18 2.87-.16 4.29-.04 1.73.15 1.19 1.36 1.17 2.42"/><path d="M.72 24.45c-.27 0-.83-1.11-.71-1.6.13-.49.91-1.14 1.49-1.22 1.4-.18 2.87-.16 4.29-.04 1.73.15 1.19 1.36 1.17 2.42-2.11.28-4.18.46-6.24.44"/><path fill="#df891f" d="M49.18 21.81c1.47 1.87.93 2.9-1.41 3.01-.91.04-1.82-.02-2.73.02-1.36.06-2.11-.3-2.13-1.62-.02-1.3.69-1.75 2.06-1.69 1.35.06 2.7.13 4.21.28"/><path d="M47.77 24.82c-.91.04-1.82-.02-2.73.02-1.36.06-2.11-.3-2.13-1.62-.02-1.3.69-1.75 2.06-1.69 1.35.06 2.7.13 4.21.28 1.47 1.87.93 2.9-1.41 3.01"/><path fill="#e68d20" d="M39.76 12.2c-1.21 1.16-2.12.47-2.64-.3-.33-.5-.34-1.43 0-1.92.55-.81 1.38-1.61 2.32-2.07.75-.37 2.09-.57 2.71-.24 1.18.64.81 1.67-.07 2.48-.72.66-1.47 1.3-2.32 2.05"/><path d="M37.12 11.9c-.33-.5-.34-1.43 0-1.92.55-.81 1.38-1.61 2.32-2.07.75-.37 2.09-.57 2.71-.24 1.18.64.81 1.67-.07 2.48-.72.66-1.47 1.3-2.32 2.05-1.21 1.16-2.12.47-2.64-.3"/><path fill="#ef9221" d="M12.13 9.8c1.58 1.2.49 2.03-.49 2.56-.46.24-1.58-.05-2.16-.4-.92-.55-1.85-1.25-2.35-2.08-.36-.59-.02-1.5.01-2.26.88.04 1.9-.14 2.6.19.9.41 1.53 1.24 2.39 1.99"/><path d="M11.64 12.36c-.46.24-1.58-.05-2.16-.4-.92-.55-1.85-1.25-2.35-2.08-.36-.59-.02-1.5.01-2.26.88.04 1.9-.14 2.6.19.9.41 1.53 1.24 2.39 1.99 1.58 1.2.49 2.03-.49 2.56"/></svg>

<svg width="50.000000" height="50.000122" viewBox="0 0 50 50.0001" fill="none" xmlns="http://www.w3.org/2000/svg" xmlns:xlink="http://www.w3.org/1999/xlink">
	<desc>
			Created with Pixso.
	</desc>
	<defs/>
	<path id="path" d="M17.42 50C17.73 46.16 18.2 42.33 18.75 38.5C18.97 36.95 19.3 35.42 19.63 33.88C20.09 31.7 20.66 31.39 23.19 31.9C25.84 32.43 28.5 32.96 31.52 33.57C29.17 28.81 26.96 24.32 24.57 19.46C24.05 20.29 23.74 20.76 23.46 21.25C20.2 26.97 16.89 32.68 13.74 38.45C12.88 40.02 11.83 40.69 9.75 40.66C4.18 40.57 3.91 40.29 6.35 35.95C10.56 28.45 14.82 20.98 18.98 13.45C19.77 12.02 20.74 11.43 22.65 11.48C31.06 11.72 28.77 10.34 32.07 16.84C35.52 23.63 38.83 30.47 42.19 37.3C43.45 39.84 42.84 40.78 39.62 40.57C36.31 40.36 33.04 39.74 29.76 39.26C28.73 39.1 27.73 38.82 26.58 38.57C26.19 40.67 25.67 42.58 25.53 44.51C25.37 46.63 24.43 48.07 22.01 48.78C21.32 48.98 20.75 49.45 20.28 49.9C19.5 50 18.56 50 17.42 50Z" fill="#F29422" fill-opacity="1.000000" fill-rule="nonzero"/>
	<path id="path" d="M18.75 38.5C18.97 36.95 19.3 35.42 19.63 33.88C20.09 31.7 20.66 31.39 23.19 31.9C25.84 32.43 28.5 32.96 31.52 33.57C29.17 28.81 26.96 24.32 24.57 19.46C24.05 20.29 23.74 20.76 23.46 21.25C20.2 26.97 16.89 32.68 13.74 38.45C12.88 40.02 11.83 40.69 9.75 40.66C4.18 40.57 3.91 40.29 6.35 35.95C10.56 28.45 14.82 20.98 18.98 13.45C19.77 12.02 20.74 11.43 22.65 11.48C31.06 11.72 28.77 10.34 32.07 16.84C35.52 23.63 38.83 30.47 42.19 37.3C43.45 39.84 42.84 40.78 39.62 40.57C36.31 40.36 33.04 39.74 29.76 39.26C28.73 39.1 27.73 38.82 26.58 38.57C26.19 40.67 25.67 42.58 25.53 44.51C25.37 46.63 24.43 48.07 22.01 48.78C21.32 48.98 20.75 49.45 20.28 49.9C19.5 50 18.56 50 17.42 50C17.73 46.16 18.2 42.33 18.75 38.5Z" stroke="#000000" stroke-opacity="0" stroke-width="1.000000"/>
	<path id="path" d="M26.19 0C26.53 1.61 26.68 3.23 26.81 4.85C26.91 6 26.1 6.22 24.96 6.26C23.75 6.29 23.04 5.98 23.16 4.85C23.33 3.34 23.52 1.83 23.67 0.16C24.42 0 25.21 0 26.19 0Z" fill="#EE9221" fill-opacity="1.000000" fill-rule="nonzero"/>
	<path id="path" d="M26.81 4.85C26.91 6 26.1 6.22 24.96 6.26C23.75 6.29 23.04 5.98 23.16 4.85C23.33 3.34 23.52 1.83 23.67 0.16C24.42 0 25.21 0 26.19 0C26.53 1.61 26.68 3.23 26.81 4.85Z" stroke="#000000" stroke-opacity="0" stroke-width="1.000000"/>
	<path id="path" d="M6.96 24.01C4.85 24.29 2.78 24.47 0.72 24.45C0.45 24.45 -0.11 23.34 0.01 22.85C0.14 22.36 0.92 21.71 1.5 21.63C2.9 21.45 4.37 21.47 5.79 21.59C7.52 21.74 6.98 22.95 6.96 24.01Z" fill="#E0891F" fill-opacity="1.000000" fill-rule="nonzero"/>
	<path id="path" d="M0.72 24.45C0.45 24.45 -0.11 23.34 0.01 22.85C0.14 22.36 0.92 21.71 1.5 21.63C2.9 21.45 4.37 21.47 5.79 21.59C7.52 21.74 6.98 22.95 6.96 24.01C4.85 24.29 2.78 24.47 0.72 24.45Z" stroke="#000000" stroke-opacity="0" stroke-width="1.000000"/>
	<path id="path" d="M49.18 21.81C50.65 23.68 50.11 24.71 47.77 24.82C46.86 24.86 45.95 24.8 45.04 24.84C43.68 24.9 42.93 24.54 42.91 23.22C42.89 21.92 43.6 21.47 44.97 21.53C46.32 21.59 47.67 21.66 49.18 21.81Z" fill="#DF891F" fill-opacity="1.000000" fill-rule="nonzero"/>
	<path id="path" d="M47.77 24.82C46.86 24.86 45.95 24.8 45.04 24.84C43.68 24.9 42.93 24.54 42.91 23.22C42.89 21.92 43.6 21.47 44.97 21.53C46.32 21.59 47.67 21.66 49.18 21.81C50.65 23.68 50.11 24.71 47.77 24.82Z" stroke="#000000" stroke-opacity="0" stroke-width="1.000000"/>
	<path id="path" d="M39.76 12.2C38.55 13.36 37.64 12.67 37.12 11.9C36.79 11.4 36.78 10.47 37.12 9.98C37.67 9.17 38.5 8.37 39.44 7.91C40.19 7.54 41.53 7.34 42.15 7.67C43.33 8.31 42.96 9.34 42.08 10.15C41.36 10.81 40.61 11.45 39.76 12.2Z" fill="#E68D20" fill-opacity="1.000000" fill-rule="nonzero"/>
	<path id="path" d="M37.12 11.9C36.79 11.4 36.78 10.47 37.12 9.98C37.67 9.17 38.5 8.37 39.44 7.91C40.19 7.54 41.53 7.34 42.15 7.67C43.33 8.31 42.96 9.34 42.08 10.15C41.36 10.81 40.61 11.45 39.76 12.2C38.55 13.36 37.64 12.67 37.12 11.9Z" stroke="#000000" stroke-opacity="0" stroke-width="1.000000"/>
	<path id="path" d="M12.13 9.8C13.71 11 12.62 11.83 11.64 12.36C11.18 12.6 10.06 12.31 9.48 11.96C8.56 11.41 7.63 10.71 7.13 9.88C6.77 9.29 7.11 8.38 7.14 7.62C8.02 7.66 9.04 7.48 9.74 7.81C10.64 8.22 11.27 9.05 12.13 9.8Z" fill="#EF9221" fill-opacity="1.000000" fill-rule="nonzero"/>
	<path id="path" d="M11.64 12.36C11.18 12.6 10.06 12.31 9.48 11.96C8.56 11.41 7.63 10.71 7.13 9.88C6.77 9.29 7.11 8.38 7.14 7.62C8.02 7.66 9.04 7.48 9.74 7.81C10.64 8.22 11.27 9.05 12.13 9.8C13.71 11 12.62 11.83 11.64 12.36Z" stroke="#000000" stroke-opacity="0" stroke-width="1.000000"/>
</svg>
